X: 5
T: Shady Grove / Soldier's Joy  v.2
P: piffero secondo a0694
O: arr Greg Rice
%R: reel
F: http://ancients.sudburymuster.org/mus/ssp/pdf/ShadydealF.pdf
Z: 2019 John Chambers <jc:trillian.mit.edu>
M: 2/4
L: 1/16
K: G
z2 |\
A2A2 A4 | B2AA G4 | A2A2 B2d2 | e6 e2 |\
g3g e2e2 | d2BA G4- | G4 z4 | z8 |\
A2BB d2B2 | A4 z4 [|[K:D] \
z8 | z8 | z8 | z8 | z8 | z8 |
z8 | z8 ||\
afdf afdf | a3f3e2 | dfaf dfaf | d3e3fg |\
afdf a2f2 | afdf a2fe | df2d AG2A |
D2DD D2 \
|: z2 |\
d3d Bcd2 | c3c ABc2 | d3d Bcd2 | cBAG F4 |\
A2A2 Ac2d | G2G2 GB2c | df2d AG2A | D2DD D2 :|


